assets/icons/moduleIcons/pad.svg

<svg width="50" height="50" viewBox="0 0 50 50" fill="none" xmlns="http://www.w3.org/2000/svg">
<path d="M31.2099 34.34H19.6399V33.34H31.2099V34.34ZM26.4399 31.26H19.6399V30.26H26.4399V31.26ZM28.4399 28.18H19.6399V27.18H28.4799L28.4399 28.18ZM31.8599 25.18H19.6399V24.18H31.8999L31.8599 25.18ZM26.3999 22.11H19.5999V21H26.3999V22.11ZM34.8899 15.45H16.5599V40H34.9299L34.8899 15.45ZM13.5299 43V12.39H37.9999V43H13.5299ZM9.30986 18C8.22768 18.9621 7.49599 20.2567 7.22986 21.68L14.8199 29.62C15.3314 28.8608 15.5775 27.9537 15.5199 27.04C16.1198 26.7996 16.6634 26.4373 17.1161 25.976C17.5688 25.5147 17.9208 24.9644 18.1499 24.36C18.9901 24.4614 19.8381 24.2476 20.5299 23.76L12.9299 15.82C11.5274 16.1564 10.2631 16.9178 9.30986 18V18ZM1.16986 14.88C1.70072 15.4962 2.19811 16.1405 2.65986 16.81C2.81485 15.3831 3.48296 14.0611 4.53986 13.09C5.49898 11.9924 6.82486 11.2815 8.26986 11.09C7.61986 10.6 6.77986 9.85003 6.47986 9.60003C5.68986 8.81003 4.14986 8.26003 1.90986 10.15C-0.330144 12.04 0.319856 14 1.16986 14.88ZM16.6099 28.08C16.4929 28.8422 16.2566 29.5813 15.9099 30.27L24.6499 34L21.1299 25C21.1299 25 20.7799 25.35 19.2899 25.35C19.0563 25.9716 18.698 26.5389 18.2372 27.017C17.7763 27.4951 17.2225 27.8738 16.6099 28.13V28.08ZM5.48986 14.08C3.34986 16.32 3.64986 17.85 3.64986 17.85L4.48986 18.7C4.76414 17.3406 5.46474 16.1041 6.48986 15.17C7.44175 14.0656 8.70257 13.2715 10.1099 12.89L9.20986 12C9.20986 12 7.56986 12 5.48986 14.08V14.08ZM7.26986 16C5.26986 18.13 5.53986 19.62 5.53986 19.62L6.27986 20.42C6.59065 19.1197 7.26326 17.934 8.21986 17C9.12865 15.9382 10.3389 15.1779 11.6899 14.82L10.8499 14C10.8499 14 9.25986 13.93 7.26986 16ZM37.1099 10L29.5199 17.9C30.1889 18.3955 31.0247 18.6107 31.8499 18.5C32.0754 19.1144 32.4319 19.6724 32.8947 20.1352C33.3575 20.598 33.9154 20.9545 34.5299 21.18C34.4439 22.0963 34.6926 23.0128 35.2299 23.76L42.8199 15.82C42.5215 14.4 41.7748 13.1135 40.6899 12.15C39.7675 11.0568 38.5083 10.3006 37.1099 10V10ZM48.1099 4.29003C45.8499 2.41003 44.3099 3.00003 43.5199 3.75003C43.2699 4.05003 42.3799 4.75003 41.7799 5.29003C43.2059 5.4538 44.5189 6.14596 45.4599 7.23003C46.0069 7.70297 46.4547 8.27968 46.7773 8.92679C47.1 9.57389 47.2912 10.2786 47.3399 11C47.8899 10.31 48.6799 9.22003 48.8299 9.07003C49.6799 8.17003 50.3199 6.24003 48.0899 4.35003L48.1099 4.29003ZM30.7099 19.44C29.2199 19.44 28.8699 19.1 28.8699 19.1L25.3999 28.1L34.0899 24.38C33.7426 23.6953 33.5223 22.9533 33.4399 22.19C32.818 21.9395 32.2545 21.5633 31.7847 21.0849C31.315 20.6066 30.949 20.0364 30.7099 19.41V19.44ZM40.7899 6.14003L39.9399 7.00003C41.3278 7.40484 42.5704 8.19966 43.5199 9.29003C44.5187 10.2408 45.2145 11.4653 45.5199 12.81L46.3099 11.97C46.3099 11.97 46.6099 10.43 44.4699 8.24003C42.3299 6.05003 40.7899 6.14003 40.7899 6.14003ZM39.1499 8.14003L38.3099 9.00003C39.6581 9.36428 40.8666 10.1235 41.7799 11.18C42.7565 12.0822 43.4335 13.2617 43.7199 14.56L44.5099 13.76C44.5099 13.76 44.7599 12.27 42.7299 10.19C40.6999 8.11003 39.1499 8.12003 39.1499 8.12003V8.14003Z" fill="#000"/>
</svg>

<svg xmlns="http://www.w3.org/2000/svg" viewBox="0 0 50 50"><g id="pad"><path id="path1523" fill="#000" d="M31.21,34.34H19.64v-1H31.21Zm-4.77-3.08h-6.8v-1h6.8Zm2-3.08H19.64v-1h8.84Zm3.42-3H19.64v-1H31.9Zm-5.46-3.07h-6.8V21h6.8Zm8.49-6.66H16.56V40H34.93ZM13.53,43V12.39H38V43ZM9.31,18a6.53,6.53,0,0,0-2.08,3.68l7.59,7.94a4.15,4.15,0,0,0,.7-2.58,4.67,4.67,0,0,0,2.63-2.68,3.42,3.42,0,0,0,2.38-.6l-7.6-7.94A7,7,0,0,0,9.31,18ZM1.17,14.88a22.71,22.71,0,0,1,1.49,1.93,5.92,5.92,0,0,1,1.88-3.72,6,6,0,0,1,3.73-2c-.65-.49-1.49-1.24-1.79-1.49-.79-.79-2.33-1.34-4.57.55S.32,14,1.17,14.88Zm15.44,13.2a7.35,7.35,0,0,1-.7,2.19L24.65,34l-3.52-9s-.35.35-1.84.35a4.87,4.87,0,0,1-2.68,2.78Zm-11.12-14c-2.14,2.24-1.84,3.77-1.84,3.77l.84.85a6.52,6.52,0,0,1,2-3.53,7.3,7.3,0,0,1,3.62-2.28L9.21,12S7.57,12,5.49,14.08ZM7.27,16c-2,2.13-1.73,3.62-1.73,3.62l.74.8A7.08,7.08,0,0,1,8.22,17a6.89,6.89,0,0,1,3.47-2.18L10.85,14S9.26,13.93,7.27,16Zm29.84-6L29.52,17.9a3.2,3.2,0,0,0,2.33.6,4.51,4.51,0,0,0,2.68,2.68,3.81,3.81,0,0,0,.7,2.58l7.59-7.94a6.77,6.77,0,0,0-2.13-3.67A6.46,6.46,0,0,0,37.11,10Zm11-5.71C45.85,2.41,44.31,3,43.52,3.75c-.25.3-1.14,1-1.74,1.54a5.74,5.74,0,0,1,3.68,1.94A5.47,5.47,0,0,1,47.34,11c.55-.69,1.34-1.78,1.49-1.93.85-.9,1.49-2.83-.74-4.72ZM30.71,19.44c-1.49,0-1.84-.34-1.84-.34l-3.47,9,8.69-3.72a6.35,6.35,0,0,1-.65-2.19,4.87,4.87,0,0,1-2.73-2.78ZM40.79,6.14,39.94,7a7.55,7.55,0,0,1,3.58,2.29,7,7,0,0,1,2,3.52l.79-.84s.3-1.54-1.84-3.73S40.79,6.14,40.79,6.14Zm-1.64,2L38.31,9a7,7,0,0,1,3.47,2.18,6.51,6.51,0,0,1,1.94,3.38l.79-.8s.25-1.49-1.78-3.57S39.15,8.12,39.15,8.12Z"/></g></svg>
